;FLAVOR:Marlin
;TIME:14983
;Filament used: 15.9628m
;Layer height: 0.3
;Generated with Cura_SteamEngine 3.2.1
M190 S50
M104 S205
M109 S205
M82 ;absolute extrusion mode
G21 ;metric values
G90 ;absolute positioning
M82 ;set extruder to absolute mode
M107 ;start with the fan off
G92 X0 Y0 Z0 E0 ; Take current position as home
G1 Z10.0 F9000 ;move the platform down 15mm
G92 E0 ;zero the extruded length
G1 F200 E3 ;extrude 3mm of feed stock
G92 E0 ;zero the extruded length again
G1 F9000
;Put printing message on LCD screen
M117 Printing...
;LAYER_COUNT:200
;LAYER:0
M107
M204 S3000
G0 F2700 X72.382 Y45.898 Z0.3
M204 S2500
;TYPE:SKIRT
G1 F900 X72.712 Y45.515 E0.02143
G1 X73.099 Y45.189 E0.04288
G1 X73.532 Y44.928 E0.06431
G1 X74 Y44.738 E0.08572
G1 X74.493 Y44.625 E0.10717
G1 X74.962 Y44.59 E0.1271
G1 X103.143 Y44.581 E1.32172
G1 X109.586 Y44.383 E1.59497
G1 X109.686 Y44.381 E1.59921
G1 X124.876 Y44.391 E2.24313
G1 X125.38 Y44.431 E2.26456
G1 X125.871 Y44.55 E2.28598
G1 X126.338 Y44.745 E2.30743
G1 X126.768 Y45.012 E2.32889
G1 X127.137 Y45.328 E2.34948
G1 X127.367 Y45.558 E2.36327
G1 X127.695 Y45.943 E2.38471
G1 X127.958 Y46.374 E2.40611
G1 X128.151 Y46.842 E2.42757
G1 X128.267 Y47.334 E2.449
G1 X128.304 Y47.818 E2.46958
G1 X128.389 Y143.73 E6.53537
G1 X128.436 Y152.162 E6.89282
G1 X128.399 Y152.666 E6.91424
G1 X128.283 Y153.158 E6.93567
G1 X128.091 Y153.626 E6.95711
G1 X127.827 Y154.058 E6.97857
G1 X127.59 Y154.348 E6.99445
G1 X127.52 Y154.424 E6.99883
G1 X127.392 Y154.555 E7.00659
G1 X127.234 Y154.708 E7.01592
G1 X126.844 Y155.03 E7.03736
G1 X126.409 Y155.286 E7.05875
G1 X125.938 Y155.471 E7.0802
G1 X125.444 Y155.579 E7.10164
G1 X125.008 Y155.609 E7.12016
G1 X98.922 Y155.609 E8.22597
G1 X98.418 Y155.569 E8.2474
G1 X97.927 Y155.45 E8.26882
G1 X97.46 Y155.256 E8.29026
G1 X97.03 Y154.99 E8.31169
G1 X96.659 Y154.672 E8.3324
G1 X96.433 Y154.446 E8.34595
G1 X96.105 Y154.061 E8.36739
G1 X95.842 Y153.63 E8.3888
G1 X95.649 Y153.162 E8.41026
G1 X95.508 Y152.466 E8.44036
G1 X94.917 Y145.798 E8.72413
G1 X94.11 Y140.424 E8.95449
G1 X92.985 Y135.032 E9.18799
G1 X92.328 Y132.43 E9.30175
G1 X90.746 Y127.14 E9.53581
G1 X88.89 Y122.01 E9.76707
G1 X86.733 Y116.959 E9.99989
G1 X84.304 Y112.061 E10.23165
G1 X81.6 Y107.299 E10.46379
G1 X78.632 Y102.703 E10.69571
G1 X75.392 Y98.259 E10.92885
G1 X72.477 Y94.661 E11.12515
G1 X72.19 Y94.245 E11.14657
G1 X71.973 Y93.788 E11.16802
G1 X71.831 Y93.303 E11.18944
G1 X71.763 Y92.647 E11.2174
G1 X71.763 Y47.79 E13.11892
G1 X71.803 Y47.286 E13.14036
G1 X71.922 Y46.795 E13.16177
G1 X72.116 Y46.328 E13.18321
G1 X72.382 Y45.898 E13.20464
M204 S3000
G1 F4200 E6.80464
G0 F2700 X107.111 Y47.12
G0 X109.554 Y47.781
M204 S2500
;TYPE:SUPPORT
G1 F4200 E13.20464
G1 F900 X124.798 Y47.781 E13.85085
G1 X124.914 Y47.897 E13.8578
G1 X124.914 Y145.131 E17.97964
G1 X125.042 Y145.258 E17.98728
G1 X125.046 Y152.103 E18.27744
G1 X124.93 Y152.219 E18.2844
G1 X98.999 Y152.219 E19.38364
G1 X98.883 Y152.103 E19.39059
G1 X98.883 Y145.335 E19.67749
G1 X99.014 Y145.205 E19.68532
G1 X99.014 Y95.258 E21.80261
G1 X107.914 Y95.258 E22.17989
G1 X109.554 Y93.618 E22.27821
G1 X109.554 Y47.781 E24.22128
M204 S3000
G0 F2700 X109.666 Y47.988
M204 S2500
G1 F900 X124.802 Y47.988 E24.8629
M204 S3000
G0 F2700 X122.636 Y47.893
M204 S2500
G1 F900 X122.636 Y152.107 E29.28063
M204 S3000
G0 F2700 X124.933 Y151.962
M204 S2500
G1 F900 X98.994 Y151.962 E30.3802
M204 S3000
G0 F2700 X101.308 Y152.107
M204 S2500
G1 F900 X101.308 Y95.37 E32.78533
M204 S3000
G0 F2700 X99.126 Y95.976
M204 S2500
G1 F900 X124.802 Y95.976 E33.87376
M204 S3000
G0 F2700 X124.802 Y93.31
M204 S2500
G1 F900 X109.666 Y93.31 E34.51539
M204 S3000
G0 F2700 X109.306 Y94.025
M204 S2500
G1 F900 X109.306 Y152.107 E36.97753
M204 S3000
G0 F2700 X106.64 Y152.107
M204 S2500
G1 F900 X106.64 Y95.37 E39.38266
M204 S3000
G0 F2700 X103.974 Y95.37
M204 S2500
G1 F900 X103.974 Y152.107 E41.78779
M204 S3000
G0 F2700 X98.994 Y149.296
M204 S2500
G1 F900 X124.932 Y149.296 E42.88733
M204 S3000
G0 F2700 X124.93 Y146.63
M204 S2500
G1 F900 X98.994 Y146.63 E43.98677
M204 S3000
G0 F2700 X99.125 Y143.964
M204 S2500
G1 F900 X124.801 Y143.964 E45.0752
M204 S3000
G0 F2700 X124.801 Y141.298
M204 S2500
G1 F900 X99.125 Y141.298 E46.16363
M204 S3000
G0 F2700 X99.125 Y138.632
M204 S2500
G1 F900 X124.801 Y138.632 E47.25206
M204 S3000
G0 F2700 X124.801 Y135.966
M204 S2500
G1 F900 X99.125 Y135.966 E48.34049
M204 S3000
G0 F2700 X99.125 Y133.3
M204 S2500
G1 F900 X124.801 Y133.3 E49.42891
M204 S3000
G0 F2700 X124.801 Y130.634
M204 S2500
G1 F900 X99.125 Y130.634 E50.51734
M204 S3000
G0 F2700 X99.125 Y127.968
M204 S2500
G1 F900 X124.801 Y127.968 E51.60577
M204 S3000
G0 F2700 X124.801 Y125.302
M204 S2500
G1 F900 X99.125 Y125.302 E52.6942
M204 S3000
G0 F2700 X99.125 Y122.636
M204 S2500
G1 F900 X124.801 Y122.636 E53.78262
M204 S3000
G0 F2700 X124.801 Y119.97
M204 S2500
G1 F900 X99.125 Y119.97 E54.87105
M204 S3000
G0 F2700 X99.126 Y117.304
M204 S2500
G1 F900 X124.802 Y117.304 E55.95948
M204 S3000
G0 F2700 X124.802 Y114.638
M204 S2500
G1 F900 X99.126 Y114.638 E57.04791
M204 S3000
G0 F2700 X99.126 Y111.972
M204 S2500
G1 F900 X124.802 Y111.972 E58.13633
M204 S3000
G0 F2700 X124.802 Y109.306
M204 S2500
G1 F900 X99.126 Y109.306 E59.22476
M204 S3000
G0 F2700 X99.126 Y106.64
M204 S2500
G1 F900 X124.802 Y106.64 E60.31319
M204 S3000
G0 F2700 X124.802 Y103.974
M204 S2500
G1 F900 X99.126 Y103.974 E61.40162
M204 S3000
G0 F2700 X99.126 Y101.308
M204 S2500
G1 F900 X124.802 Y101.308 E62.49004
M204 S3000
G0 F2700 X124.802 Y98.642
M204 S2500
G1 F900 X99.126 Y98.642 E63.57847
M204 S3000
G1 F4200 E57.17847
G0 F2700 X107.111 Y93.319
G0 X109.666 Y90.644
M204 S2500
G1 F4200 E63.57847
G1 F900 X124.802 Y90.644 E64.2201
M204 S3000
G0 F2700 X124.802 Y87.978
M204 S2500
G1 F900 X109.666 Y87.978 E64.86173
M204 S3000
G0 F2700 X109.666 Y85.312
M204 S2500
G1 F900 X124.802 Y85.312 E65.50335
M204 S3000
G0 F2700 X124.802 Y82.646
M204 S2500
G1 F900 X109.666 Y82.646 E66.14498
M204 S3000
G0 F2700 X109.666 Y79.98
M204 S2500
G1 F900 X124.802 Y79.98 E66.78661
M204 S3000
G0 F2700 X124.802 Y77.314
M204 S2500
G1 F900 X109.666 Y77.314 E67.42824
M204 S3000
G0 F2700 X109.666 Y74.648
M204 S2500
G1 F900 X124.802 Y74.648 E68.06987
M204 S3000
G0 F2700 X124.802 Y71.982
M204 S2500
G1 F900 X109.666 Y71.982 E68.71149
M204 S3000
G0 F2700 X109.666 Y69.316
M204 S2500
G1 F900 X124.802 Y69.316 E69.35312
M204 S3000
G0 F2700 X124.802 Y66.65
M204 S2500
G1 F900 X109.666 Y66.65 E69.99475
M204 S3000
G0 F2700 X109.666 Y63.984
M204 S2500
G1 F900 X124.802 Y63.984 E70.63638
M204 S3000
G0 F2700 X124.802 Y61.318
M204 S2500
G1 F900 X109.666 Y61.318 E71.27801
M204 S3000
G0 F2700 X109.666 Y58.652
M204 S2500
G1 F900 X124.802 Y58.652 E71.91963
M204 S3000
G0 F2700 X124.802 Y55.986
M204 S2500
G1 F900 X109.666 Y55.986 E72.56126
M204 S3000
G0 F2700 X109.666 Y53.32
M204 S2500
G1 F900 X124.802 Y53.32 E73.20289
M204 S3000
G0 F2700 X124.802 Y50.654
M204 S2500
G1 F900 X109.666 Y50.654 E73.84452
M204 S3000
G0 F2700 X111.972 Y47.893
M204 S2500
G1 F900 X111.972 Y152.107 E78.26224
M204 S3000
G0 F2700 X114.638 Y152.107
M204 S2500
G1 F900 X114.638 Y47.893 E82.67996
M204 S3000
G0 F2700 X117.304 Y47.893
M204 S2500
G1 F900 X117.304 Y152.107 E87.09768
M204 S3000
G0 F2700 X119.97 Y152.107
M204 S2500
G1 F900 X119.97 Y47.893 E91.5154
M204 S3000
G1 F4200 E85.1154
G0 F2700 X107.619 Y48.395
G0 X106.34 Y48.395
G0 X96.963 Y57.832
M204 S2500
;TYPE:WALL-INNER
G1 F4200 E91.5154
G1 F900 X96.453 Y58.87 E91.56443
G1 X96.254 Y59.462 E91.5909
G1 X96.147 Y60.069 E91.61703
G1 X96.142 Y60.683 E91.64306
G1 X96.238 Y61.288 E91.66902
G1 X96.433 Y61.874 E91.6952
G1 X96.718 Y62.431 E91.72173
G1 X97.378 Y63.381 E91.77076
G1 X100.035 Y63.183 E91.88371
G1 X100.114 Y63.037 E91.89075
G1 X100.171 Y62.932 E91.89581
G1 X100.242 Y63.027
G1 X100.342 Y63.16 E91.90016
G1 X102.999 Y62.962 E92.0131
G1 X103.51 Y61.923 E92.06218
G1 X103.708 Y61.332 E92.08861
G1 X103.816 Y60.724 E92.11478
G1 X103.82 Y60.11 E92.14081
G1 X103.724 Y59.506 E92.16674
G1 X103.529 Y58.92 E92.19292
G1 X103.244 Y58.363 E92.21944
G1 X102.584 Y57.413 E92.26848
G1 X99.927 Y57.611 E92.38142
G1 X99.85 Y57.755 E92.38834
G1 X99.793 Y57.86 E92.39341
G1 X99.722 Y57.765
G1 X99.624 Y57.634 E92.39764
G1 X96.963 Y57.832 E92.51075
M204 S3000
G0 F2700 X96.508 Y60.103
G0 X96.503 Y60.655
G0 X96.59 Y61.202
G0 X103.391 Y78.076
G0 X103.491 Y78.629
G0 X103.501 Y79.18
G0 X103.435 Y79.622
G0 X102.65 Y81.911
M204 S2500
G1 F900 X103.299 Y80.957 E92.55966
G1 X103.581 Y80.397 E92.58624
G1 X103.771 Y79.81 E92.6124
G1 X103.863 Y79.205 E92.63834
G1 X103.851 Y78.592 E92.66433
G1 X103.741 Y77.984 E92.69052
G1 X103.536 Y77.392 E92.71708
G1 X103.015 Y76.36 E92.76608
G1 X100.355 Y76.183 E92.87909
G1 X100.258 Y76.315 E92.88604
G1 X100.188 Y76.411 E92.89107
G1 X100.131 Y76.307
G1 X100.052 Y76.164 E92.89529
G1 X97.392 Y75.988 E93.00829
G1 X96.741 Y76.942 E93.05725
G1 X96.461 Y77.503 E93.08383
G1 X96.27 Y78.09 E93.11
G1 X96.181 Y78.697 E93.13601
G1 X96.191 Y79.306 E93.16183
G1 X96.301 Y79.915 E93.18806
G1 X96.506 Y80.507 E93.21462
G1 X97.026 Y81.539 E93.2636
G1 X99.685 Y81.716 E93.37657
G1 X99.782 Y81.584 E93.38351
G1 X99.853 Y81.487 E93.38861
G1 X99.91 Y81.591
G1 X99.99 Y81.736 E93.3929
G1 X102.65 Y81.911 E93.5059
M204 S3000
G0 F2700 X105.954 Y91.658
M204 S2500
G1 F900 X75.954 Y91.658 E94.77762
G1 X75.954 Y48.781 E96.59522
G1 X105.954 Y48.781 E97.86694
G1 X105.954 Y91.658 E99.68454
M204 S3000
G0 F2700 X106.354 Y92.058
M204 S2500
G1 F900 X75.554 Y92.058 E100.99017
G1 X75.554 Y48.381 E102.84168
G1 X106.354 Y48.381 E104.14732
G1 X106.354 Y92.058 E105.99882
M204 S3000
G0 F2700 X106.284 Y91.988
G0 X102.491 Y81.586
G0 X102.448 Y81.497
M204 S2500
G1 F900 X102.954 Y80.754 E106.03693
G1 X103.21 Y80.245 E106.06108
G1 X103.38 Y79.718 E106.08455
G1 X103.462 Y79.178 E106.10771
G1 X103.452 Y78.632 E106.13086
G1 X103.353 Y78.086 E106.15438
G1 X103.167 Y77.548 E106.17851
G1 X102.761 Y76.744 E106.21669
G1 X100.548 Y76.597 E106.31071
G1 X100.325 Y76.902 E106.32673
G1 X100.14 Y77.154 E106.33998
G1 X99.989 Y76.88 E106.34764
G1 X99.807 Y76.549 E106.36365
G1 X97.594 Y76.402 E106.45767
G1 X97.087 Y77.145 E106.4958
G1 X96.832 Y77.655 E106.51997
G1 X96.661 Y78.182 E106.54346
G1 X96.581 Y78.723 E106.56664
G1 X96.59 Y79.267 E106.58971
G1 X96.689 Y79.813 E106.61323
G1 X96.875 Y80.351 E106.63736
G1 X97.28 Y81.155 E106.67552
G1 X99.493 Y81.302 E106.76954
G1 X99.718 Y80.997 E106.78561
G1 X99.902 Y80.746 E106.7988
G1 X100.052 Y81.019 E106.80643
G1 X100.235 Y81.351 E106.8225
G1 X102.448 Y81.497 E106.91652
M204 S3000
G0 F2700 X102.491 Y81.586
G0 X103.247 Y80.26
G0 X103.418 Y79.727
G0 X103.501 Y79.18
G0 X103.491 Y78.629
G0 X103.391 Y78.076
G0 X96.59 Y61.202
G0 X96.503 Y60.655
G0 X96.508 Y60.103
G0 X96.595 Y59.608
G0 X97.165 Y58.132
G0 X97.221 Y58.214
M204 S2500
G1 F900 X96.824 Y59.023 E106.95472
G1 X96.643 Y59.561 E106.97878
G1 X96.547 Y60.106 E107.00224
G1 X96.542 Y60.653 E107.02543
G1 X96.628 Y61.193 E107.04861
G1 X96.803 Y61.719 E107.0721
G1 X97.062 Y62.225 E107.0962
G1 X97.576 Y62.965 E107.1344
G1 X99.787 Y62.8 E107.22838
G1 X99.967 Y62.467 E107.24443
G1 X100.115 Y62.193 E107.25763
G1 X100.302 Y62.442 E107.26527
G1 X100.53 Y62.745 E107.28134
G1 X102.741 Y62.58 E107.37533
G1 X103.139 Y61.771 E107.41355
G1 X103.319 Y61.233 E107.4376
G1 X103.416 Y60.687 E107.46111
G1 X103.42 Y60.14 E107.4843
G1 X103.334 Y59.601 E107.50743
G1 X103.159 Y59.075 E107.53093
G1 X102.9 Y58.569 E107.55503
G1 X102.386 Y57.829 E107.59322
G1 X100.175 Y57.994 E107.68721
G1 X99.996 Y58.326 E107.7032
G1 X99.847 Y58.601 E107.71646
G1 X99.661 Y58.351 E107.72408
G1 X99.66 Y58.35 E107.72414
G1 X99.435 Y58.049 E107.74007
G1 X97.221 Y58.214 E107.83419
M204 S3000
G0 F2700 X97.479 Y58.596
M204 S2500
;TYPE:WALL-OUTER
G1 F900 X97.195 Y59.175 E107.86152
G1 X97.032 Y59.66 E107.88321
G1 X96.947 Y60.143 E107.904
G1 X96.942 Y60.623 E107.92435
G1 X97.018 Y61.098 E107.94474
G1 X97.173 Y61.564 E107.96556
G1 X97.406 Y62.019 E107.98723
G1 X97.774 Y62.549 E108.01458
G1 X99.539 Y62.417 E108.08961
G1 X99.849 Y61.842 E108.1173
G1 X99.895 Y61.718 E108.12291
G1 X100.028 Y61.355 E108.1393
G1 X100.03 Y61.343 E108.13981
G1 X100.046 Y61.265 E108.14319
G1 X100.072 Y61.339
G1 X100.076 Y61.351
G1 X100.262 Y61.691 E108.15304
G1 X100.326 Y61.808 E108.1587
G1 X100.718 Y62.33 E108.18637
G1 X102.483 Y62.198 E108.2614
G1 X102.768 Y61.619 E108.28875
G1 X102.93 Y61.134 E108.31043
G1 X103.016 Y60.65 E108.33127
G1 X103.02 Y60.17 E108.35162
G1 X102.944 Y59.696 E108.37197
G1 X102.789 Y59.23 E108.39279
G1 X102.556 Y58.775 E108.41446
G1 X102.188 Y58.245 E108.44181
G1 X100.423 Y58.377 E108.51684
G1 X100.113 Y58.951 E108.54449
G1 X100.067 Y59.076 E108.55014
G1 X99.934 Y59.439 E108.56652
G1 X99.932 Y59.45 E108.567
G1 X99.916 Y59.528 E108.57037
G1 X99.891 Y59.455
G1 X99.886 Y59.442
G1 X99.7 Y59.103 E108.5802
G1 X99.636 Y58.986 E108.58585
G1 X99.246 Y58.464 E108.61347
G1 X97.479 Y58.596 E108.68859
M204 S3000
G0 F2700 X97.391 Y58.775
G0 X96.944 Y58.554
G0 X96.605 Y59.552
G0 X96.508 Y60.103
G0 X96.507 Y60.259
G0 X97.828 Y76.319
G0 X97.796 Y76.816
M204 S2500
G1 F900 X97.433 Y77.348 E108.71589
G1 X97.203 Y77.807 E108.73765
G1 X97.052 Y78.274 E108.75846
G1 X96.981 Y78.749 E108.77882
G1 X96.989 Y79.228 E108.79912
G1 X97.077 Y79.711 E108.81994
G1 X97.244 Y80.195 E108.84164
G1 X97.534 Y80.771 E108.86898
G1 X99.301 Y80.888 E108.94405
G1 X99.687 Y80.363 E108.97167
G1 X99.751 Y80.245 E108.97736
G1 X99.934 Y79.906 E108.99369
G1 X99.937 Y79.895 E108.99417
G1 X99.963 Y79.822 E108.99746
G1 X99.978 Y79.898
G1 X99.981 Y79.909
G1 X100.117 Y80.27 E109.00724
G1 X100.165 Y80.395 E109.01292
G1 X100.48 Y80.966 E109.04056
G1 X102.246 Y81.083 E109.11559
G1 X102.609 Y80.551 E109.14289
G1 X102.839 Y80.093 E109.16462
G1 X102.989 Y79.626 E109.18541
G1 X103.061 Y79.151 E109.20578
G1 X103.053 Y78.671 E109.22613
G1 X102.965 Y78.188 E109.24694
G1 X102.798 Y77.704 E109.26864
G1 X102.507 Y77.128 E109.296
G1 X100.741 Y77.011 E109.37102
G1 X100.355 Y77.537 E109.39868
G1 X100.291 Y77.655 E109.40437
G1 X100.108 Y77.994 E109.4207
G1 X100.105 Y78.005 E109.42119
G1 X100.079 Y78.078 E109.42447
G1 X100.064 Y78.002
G1 X100.061 Y77.991
G1 X99.925 Y77.63 E109.43425
G1 X99.877 Y77.505 E109.43993
G1 X99.562 Y76.934 E109.46757
G1 X97.796 Y76.816 E109.5426
M204 S3000
G0 F2700 X97.684 Y76.981
G0 X97.272 Y76.698
G0 X96.795 Y77.64
G0 X96.623 Y78.173
G0 X96.542 Y78.721
G0 X96.551 Y79.27
G0 X96.651 Y79.823
G0 X96.839 Y80.366
G0 X97.216 Y81.105
G0 X106.284 Y91.988
G0 X106.754 Y92.458
M204 S2500
G1 F900 X75.154 Y92.458 E110.88216
G1 X75.154 Y47.981 E112.76757
G1 X106.754 Y47.981 E114.10712
G1 X106.754 Y92.458 E115.99254
M204 S3000
G0 F2700 X106.554 Y92.458
G0 X106.284 Y91.988
G0 X105.564 Y91.268
M204 S2500
;TYPE:SKIN
G1 F900 X76.344 Y91.268 E117.2312
G1 X76.344 Y49.171 E119.01573
G1 X105.564 Y49.171 E120.25439
G1 X105.564 Y91.268 E122.03892
M204 S3000
G0 F2700 X102.847 Y82.315
M204 S2500
G1 F900 X103.636 Y81.156 E122.09835
G1 X103.943 Y80.545 E122.12734
G1 X104.152 Y79.9 E122.15608
G1 X104.253 Y79.231 E122.18476
G1 X104.241 Y78.553 E122.21351
G1 X104.119 Y77.885 E122.24229
G1 X103.896 Y77.24 E122.27122
G1 X103.263 Y75.986 E122.33077
G1 X97.195 Y75.584 E122.58856
G1 X96.404 Y76.745 E122.64812
G1 X96.099 Y77.355 E122.67703
G1 X95.889 Y78.001 E122.70582
G1 X95.791 Y78.672 E122.73457
G1 X95.801 Y79.345 E122.7631
G1 X95.923 Y80.014 E122.79193
G1 X96.146 Y80.659 E122.82086
G1 X96.778 Y81.913 E122.88038
G1 X102.847 Y82.315 E123.13822
M204 S3000
G0 F2700 X103.501 Y79.18
