;FLAVOR:Marlin
;TIME:15186
;Filament used: 12.2042m
;Layer height: 0.3
;Generated with Cura_SteamEngine 3.2.1
M190 S50
M104 S205
M109 S205
M82 ;absolute extrusion mode
G21 ;metric values
G90 ;absolute positioning
M82 ;set extruder to absolute mode
M107 ;start with the fan off
G92 X0 Y0 Z0 E0 ; Take current position as home
G1 Z10.0 F9000 ;move the platform down 15mm
G92 E0 ;zero the extruded length
G1 F200 E3 ;extrude 3mm of feed stock
G92 E0 ;zero the extruded length again
G1 F9000
;Put printing message on LCD screen
M117 Printing...
;LAYER_COUNT:179
;LAYER:0
M107
M204 S3000
G0 F5400 X72.185 Y37.771 Z0.3
M204 S2500
;TYPE:SKIRT
G1 F900 X72.451 Y37.341 E0.02143
G1 X72.781 Y36.958 E0.04286
G1 X73.168 Y36.632 E0.06432
G1 X73.601 Y36.371 E0.08575
G1 X74.069 Y36.181 E0.10716
G1 X74.562 Y36.068 E0.1286
G1 X75.031 Y36.033 E0.14854
G1 X103.212 Y36.024 E1.34315
G1 X109.655 Y35.826 E1.61641
G1 X109.755 Y35.824 E1.62065
G1 X124.939 Y35.834 E2.26431
G1 X125.443 Y35.874 E2.28574
G1 X125.934 Y35.993 E2.30716
G1 X126.401 Y36.188 E2.32861
G1 X126.831 Y36.455 E2.35007
G1 X127.2 Y36.771 E2.37066
G1 X127.43 Y37.001 E2.38445
G1 X127.758 Y37.386 E2.40589
G1 X128.021 Y37.817 E2.42729
G1 X128.214 Y38.285 E2.44875
G1 X128.33 Y38.777 E2.47018
G1 X128.367 Y39.264 E2.49088
G1 X128.367 Y143.619 E6.91458
G1 X128.327 Y144.123 E6.93601
G1 X128.208 Y144.614 E6.95743
G1 X128.014 Y145.081 E6.97887
G1 X127.748 Y145.511 E7.0003
G1 X127.465 Y145.846 E7.01889
G1 X127.247 Y146.071 E7.03217
G1 X126.868 Y146.405 E7.05359
G1 X126.441 Y146.675 E7.075
G1 X125.976 Y146.875 E7.09646
G1 X125.486 Y146.999 E7.11789
G1 X124.95 Y147.044 E7.14069
G1 X98.904 Y147.052 E8.2448
G1 X98.4 Y147.012 E8.26623
G1 X97.909 Y146.894 E8.28764
G1 X97.442 Y146.699 E8.30909
G1 X97.012 Y146.433 E8.33053
G1 X96.64 Y146.115 E8.35127
G1 X96.426 Y145.901 E8.3641
G1 X96.098 Y145.516 E8.38554
G1 X95.835 Y145.085 E8.40694
G1 X95.642 Y144.617 E8.4284
G1 X95.501 Y143.916 E8.45871
G1 X94.948 Y137.57 E8.72875
G1 X94.155 Y132.134 E8.96162
G1 X93.067 Y126.805 E9.19218
G1 X92.405 Y124.144 E9.30842
G1 X90.854 Y118.874 E9.5413
G1 X89.01 Y113.708 E9.77382
G1 X86.887 Y108.677 E10.0053
G1 X84.475 Y103.761 E10.23743
G1 X81.789 Y98.988 E10.4696
G1 X78.838 Y94.375 E10.70173
G1 X75.624 Y89.926 E10.9344
G1 X72.54 Y86.097 E11.14281
G1 X72.255 Y85.68 E11.16422
G1 X72.039 Y85.222 E11.18569
G1 X71.898 Y84.737 E11.2071
G1 X71.832 Y84.09 E11.23467
G1 X71.832 Y39.233 E13.13619
G1 X71.872 Y38.729 E13.15763
G1 X71.991 Y38.238 E13.17904
G1 X72.185 Y37.771 E13.20048
M204 S3000
G1 F4200 E6.80048
G0 F5400 X107.18 Y38.563
G0 X109.623 Y39.224
M204 S2500
;TYPE:SUPPORT
G1 F4200 E13.20048
G1 F900 X124.861 Y39.224 E13.84643
G1 X124.977 Y39.34 E13.85339
G1 X124.977 Y143.546 E18.27077
G1 X124.861 Y143.662 E18.27772
G1 X98.981 Y143.662 E19.3748
G1 X98.864 Y143.544 E19.38184
G1 X99.067 Y86.701 E21.79148
G1 X107.983 Y86.701 E22.16944
G1 X109.623 Y85.061 E22.26775
G1 X109.623 Y39.224 E24.21082
M204 S3000
G0 F5400 X109.735 Y39.99
M204 S2500
G1 F900 X124.865 Y39.99 E24.8522
M204 S3000
G0 F5400 X122.636 Y39.336
M204 S2500
G1 F900 X122.636 Y143.55 E29.26992
M204 S3000
G0 F5400 X119.97 Y143.55
M204 S2500
G1 F900 X119.97 Y39.336 E33.68764
M204 S3000
G0 F5400 X117.304 Y39.336
M204 S2500
G1 F900 X117.304 Y143.55 E38.10536
M204 S3000
G0 F5400 X114.638 Y143.55
M204 S2500
G1 F900 X114.638 Y39.336 E42.52308
M204 S3000
G0 F5400 X111.972 Y39.336
M204 S2500
G1 F900 X111.972 Y143.55 E46.9408
M204 S3000
G0 F5400 X109.306 Y143.55
M204 S2500
G1 F900 X109.306 Y85.537 E49.40002
M204 S3000
G0 F5400 X109.531 Y85.312
M204 S2500
G1 F900 X124.865 Y85.312 E50.05004
M204 S3000
G0 F5400 X124.865 Y82.646
M204 S2500
G1 F900 X109.735 Y82.646 E50.69141
M204 S3000
G0 F5400 X109.735 Y79.98
M204 S2500
G1 F900 X124.865 Y79.98 E51.33279
M204 S3000
G0 F5400 X124.865 Y77.314
M204 S2500
G1 F900 X109.735 Y77.314 E51.97416
M204 S3000
G0 F5400 X109.735 Y74.648
M204 S2500
G1 F900 X124.865 Y74.648 E52.61554
M204 S3000
G0 F5400 X124.865 Y71.982
M204 S2500
G1 F900 X109.735 Y71.982 E53.25691
M204 S3000
G0 F5400 X109.735 Y69.316
M204 S2500
G1 F900 X124.865 Y69.316 E53.89828
M204 S3000
G0 F5400 X124.865 Y66.65
M204 S2500
G1 F900 X109.735 Y66.65 E54.53966
M204 S3000
G0 F5400 X109.735 Y63.984
M204 S2500
G1 F900 X124.865 Y63.984 E55.18103
M204 S3000
G0 F5400 X124.865 Y61.318
M204 S2500
G1 F900 X109.735 Y61.318 E55.8224
M204 S3000
G0 F5400 X109.735 Y58.652
M204 S2500
G1 F900 X124.865 Y58.652 E56.46378
M204 S3000
G0 F5400 X124.865 Y55.986
M204 S2500
G1 F900 X109.735 Y55.986 E57.10515
M204 S3000
G0 F5400 X109.735 Y53.32
M204 S2500
G1 F900 X124.865 Y53.32 E57.74652
M204 S3000
G0 F5400 X124.865 Y50.654
M204 S2500
G1 F900 X109.735 Y50.654 E58.3879
M204 S3000
G0 F5400 X109.735 Y47.988
M204 S2500
G1 F900 X124.865 Y47.988 E59.02927
M204 S3000
G0 F5400 X124.865 Y45.322
M204 S2500
G1 F900 X109.735 Y45.322 E59.67064
M204 S3000
G0 F5400 X109.735 Y42.656
M204 S2500
G1 F900 X124.865 Y42.656 E60.31202
M204 S3000
G0 F5400 X124.865 Y87.978
M204 S2500
G1 F900 X99.174 Y87.978 E61.40108
M204 S3000
G0 F5400 X101.308 Y86.813
M204 S2500
G1 F900 X101.308 Y143.55 E63.80621
M204 S3000
G0 F5400 X103.974 Y143.55
M204 S2500
G1 F900 X103.974 Y86.813 E66.21134
M204 S3000
G0 F5400 X106.64 Y86.813
M204 S2500
G1 F900 X106.64 Y143.55 E68.61647
M204 S3000
G0 F5400 X98.984 Y141.298
M204 S2500
G1 F900 X124.864 Y141.298 E69.71355
M204 S3000
G0 F5400 X124.864 Y138.632
M204 S2500
G1 F900 X98.993 Y138.632 E70.81024
M204 S3000
G0 F5400 X99.003 Y135.966
M204 S2500
G1 F900 X124.864 Y135.966 E71.90651
M204 S3000
G0 F5400 X124.864 Y133.3
M204 S2500
G1 F900 X99.012 Y133.3 E73.0024
M204 S3000
G0 F5400 X99.021 Y130.634
M204 S2500
G1 F900 X124.864 Y130.634 E74.09791
M204 S3000
G0 F5400 X124.864 Y127.968
M204 S2500
G1 F900 X99.031 Y127.968 E75.19299
M204 S3000
G0 F5400 X99.04 Y125.302
M204 S2500
G1 F900 X124.864 Y125.302 E76.28769
M204 S3000
G0 F5400 X124.864 Y122.636
M204 S2500
G1 F900 X99.05 Y122.636 E77.38197
M204 S3000
G0 F5400 X99.059 Y119.97
M204 S2500
G1 F900 X124.864 Y119.97 E78.47586
M204 S3000
G0 F5400 X124.865 Y117.304
M204 S2500
G1 F900 X99.07 Y117.304 E79.56934
M204 S3000
G0 F5400 X99.079 Y114.638
M204 S2500
G1 F900 X124.865 Y114.638 E80.66243
M204 S3000
G0 F5400 X124.865 Y111.972
M204 S2500
G1 F900 X99.089 Y111.972 E81.75509
M204 S3000
G0 F5400 X99.098 Y109.306
M204 S2500
G1 F900 X124.865 Y109.306 E82.84738
M204 S3000
G0 F5400 X124.865 Y106.64
M204 S2500
G1 F900 X99.108 Y106.64 E83.93924
M204 S3000
G0 F5400 X99.117 Y103.974
M204 S2500
G1 F900 X124.865 Y103.974 E85.03072
M204 S3000
G0 F5400 X124.865 Y101.308
M204 S2500
G1 F900 X99.127 Y101.308 E86.12177
M204 S3000
G0 F5400 X99.136 Y98.642
M204 S2500
G1 F900 X124.865 Y98.642 E87.21245
M204 S3000
G0 F5400 X124.865 Y95.976
M204 S2500
G1 F900 X99.146 Y95.976 E88.3027
M204 S3000
G0 F5400 X99.155 Y93.31
M204 S2500
G1 F900 X124.865 Y93.31 E89.39257
M204 S3000
G0 F5400 X124.865 Y90.644
M204 S2500
G1 F900 X99.165 Y90.644 E90.48201
M204 S3000
G1 F4200 E84.08201
G0 F5400 X99.165 Y84.766
G0 X99.165 Y83.881
G0 X106.753 Y83.831
G0 X106.823 Y83.901
M204 S2500
;TYPE:WALL-OUTER
G1 F4200 E90.48201
G1 F900 X75.223 Y83.901 E91.82156
G1 X75.223 Y39.424 E93.70698
G1 X106.823 Y39.424 E95.04653
G1 X106.823 Y83.901 E96.93195
M204 S3000
G0 F5400 X106.623 Y83.901
G0 X106.623 Y83.801
G0 X97.585 Y72.247
G0 X97.155 Y71.33
G0 X97.002 Y70.356
G0 X97.166 Y69.419
G0 X97.817 Y68.17
G0 X97.861 Y68.259
M204 S2500
G1 F900 X97.412 Y68.95 E96.96688
G1 X97.203 Y69.432 E96.98915
G1 X97.085 Y69.887 E97.00908
G1 X97.042 Y70.356 E97.02904
G1 X97.078 Y70.832 E97.04928
G1 X97.193 Y71.318 E97.07045
G1 X97.404 Y71.837 E97.0942
G1 X97.606 Y72.214 E97.11233
G1 X99.372 Y72.331 E97.18736
G1 X99.821 Y71.695 E97.22036
G1 X99.84 Y71.668 E97.22176
G1 X99.876 Y71.593 E97.22529
G1 X100.028 Y71.273 E97.2403
G1 X100.129 Y71.567
G1 X100.19 Y71.741 E97.24621
G1 X100.206 Y71.771 E97.24766
G1 X100.546 Y72.409 E97.2783
G1 X102.317 Y72.526 E97.35354
G1 X102.766 Y71.836 E97.38844
G1 X102.976 Y71.353 E97.41076
G1 X103.093 Y70.899 E97.43064
G1 X103.136 Y70.43 E97.4506
G1 X103.101 Y69.954 E97.47083
G1 X102.985 Y69.468 E97.49201
G1 X102.775 Y68.949 E97.51575
G1 X102.573 Y68.571 E97.53392
G1 X100.806 Y68.454 E97.60899
G1 X100.358 Y69.09 E97.64196
G1 X100.339 Y69.117 E97.64336
G1 X100.302 Y69.194 E97.64698
G1 X100.15 Y69.512 E97.66192
G1 X100.049 Y69.218
G1 X99.988 Y69.045 E97.66781
G1 X99.973 Y69.015 E97.66923
G1 X99.633 Y68.377 E97.69987
G1 X97.861 Y68.259 E97.77516
M204 S3000
G0 F5400 X97.753 Y68.426
G0 X97.671 Y68.371
G0 X102.61 Y53.723
G0 X102.554 Y53.641
M204 S2500
G1 F900 X102.901 Y52.893 E97.81011
G1 X103.042 Y52.387 E97.83238
G1 X103.095 Y51.92 E97.8523
G1 X103.071 Y51.45 E97.87225
G1 X102.97 Y50.984 E97.89246
G1 X102.788 Y50.519 E97.91363
G1 X102.507 Y50.034 E97.93739
G1 X102.253 Y49.688 E97.95559
G1 X100.488 Y49.82 E98.03062
G1 X100.133 Y50.513 E98.06362
G1 X100.118 Y50.543 E98.06505
G1 X100.093 Y50.624 E98.06864
G1 X99.986 Y50.96 E98.08359
G1 X99.845 Y50.683
G1 X99.761 Y50.52 E98.08799
G1 X99.741 Y50.493 E98.08942
G1 X99.315 Y49.907 E98.12013
G1 X97.544 Y50.039 E98.19541
G1 X97.197 Y50.786 E98.23033
G1 X97.057 Y51.293 E98.25262
G1 X97.004 Y51.76 E98.27255
G1 X97.027 Y52.23 E98.29249
G1 X97.129 Y52.696 E98.31272
G1 X97.311 Y53.161 E98.33388
G1 X97.592 Y53.645 E98.35761
G1 X97.845 Y53.992 E98.37581
G1 X99.611 Y53.86 E98.45088
G1 X99.966 Y53.167 E98.48389
G1 X99.981 Y53.137 E98.48531
G1 X100.006 Y53.056 E98.48891
G1 X100.112 Y52.72 E98.50384
G1 X100.254 Y52.997
G1 X100.338 Y53.16 E98.50826
G1 X100.358 Y53.187 E98.50968
G1 X100.784 Y53.773 E98.5404
G1 X102.554 Y53.641 E98.61564
M204 S3000
G0 F5400 X102.638 Y53.46
G0 X102.811 Y54.013
M204 S2500
;TYPE:SKIN
G1 F900 X103.268 Y53.028 E98.66167
G1 X103.426 Y52.462 E98.68658
G1 X103.487 Y51.932 E98.70919
G1 X103.459 Y51.399 E98.73182
G1 X103.344 Y50.871 E98.75472
G1 X103.141 Y50.349 E98.77847
G1 X102.834 Y49.82 E98.80439
G1 X102.44 Y49.283 E98.83263
G1 X100.241 Y49.447 E98.9261
G1 X99.919 Y50.075 E98.95602
G1 X99.502 Y49.502 E98.98606
G1 X97.287 Y49.667 E99.08022
G1 X96.83 Y50.651 E99.12621
G1 X96.673 Y51.219 E99.15119
G1 X96.612 Y51.748 E99.17376
G1 X96.639 Y52.281 E99.19639
G1 X96.755 Y52.809 E99.2193
G1 X96.958 Y53.331 E99.24305
G1 X97.265 Y53.858 E99.2689
G1 X97.658 Y54.397 E99.29718
G1 X99.858 Y54.233 E99.3907
G1 X100.18 Y53.605 E99.42061
G1 X100.597 Y54.178 E99.45066
G1 X102.811 Y54.013 E99.54477
M204 S3000
G0 F5400 X100.613 Y68.05
M204 S2500
G1 F900 X100.207 Y68.627 E99.57468
G1 X99.875 Y68.002 E99.60468
G1 X97.658 Y67.855 E99.69886
G1 X97.067 Y68.765 E99.74486
G1 X96.833 Y69.305 E99.76981
G1 X96.699 Y69.82 E99.79237
G1 X96.65 Y70.353 E99.81506
G1 X96.692 Y70.892 E99.83797
G1 X96.82 Y71.437 E99.86171
G1 X97.051 Y72.003 E99.88762
G1 X97.364 Y72.589 E99.91578
G1 X99.565 Y72.735 E100.00929
G1 X99.971 Y72.158 E100.0392
G1 X100.304 Y72.784 E100.06926
G1 X102.52 Y72.93 E100.1634
G1 X103.111 Y72.021 E100.20936
G1 X103.346 Y71.48 E100.23436
G1 X103.479 Y70.966 E100.25687
G1 X103.528 Y70.434 E100.27952
G1 X103.487 Y69.894 E100.30247
G1 X103.357 Y69.349 E100.32622
G1 X103.128 Y68.783 E100.35211
G1 X102.815 Y68.196 E100.38031
G1 X100.613 Y68.05 E100.47386
M204 S3000
G0 F5400 X106.433 Y39.814
M204 S2500
G1 F900 X106.433 Y83.511 E102.32621
G1 X75.613 Y83.511 E103.6327
G1 X75.613 Y39.814 E105.48505
G1 X106.433 Y39.814 E106.79154
M204 S3000
G0 F5400 X106.215 Y40.03
G1 F900 X105.932 Y40.313 E106.81291
M204 S2500
G1 X106.322 Y40.703
M204 S3000
G0 F5400 X106.252 Y41.198
M204 S2500
G1 F900 X105.047 Y39.993 E106.88515
G1 X104.977 Y39.923
M204 S3000
G0 F5400 X104.482 Y39.993
M204 S2500
G1 F900 X106.252 Y41.764 E106.99129
G1 X106.322 Y41.834
M204 S3000
G0 F5400 X106.252 Y42.33
M204 S2500
G1 F900 X103.916 Y39.993 E107.13137
G1 X103.846 Y39.923
M204 S3000
G0 F5400 X103.35 Y39.993
M204 S2500
G1 F900 X106.252 Y42.895 E107.30534
G1 X106.322 Y42.965
M204 S3000
G0 F5400 X106.252 Y43.461
M204 S2500
G1 F900 X102.785 Y39.993 E107.51321
G1 X102.715 Y39.923
M204 S3000
G0 F5400 X102.219 Y39.993
M204 S2500
G1 F900 X106.252 Y44.027 E107.75502
G1 X106.322 Y44.097
M204 S3000
G0 F5400 X106.252 Y44.592
M204 S2500
G1 F900 X101.653 Y39.993 E108.03073
G1 X101.583 Y39.923
M204 S3000
G0 F5400 X101.087 Y39.993
M204 S2500
G1 F900 X106.252 Y45.158 E108.34037
G1 X106.322 Y45.228
M204 S3000
G0 F5400 X106.252 Y45.724
M204 S2500
G1 F900 X100.522 Y39.993 E108.68391
G1 X100.452 Y39.923
M204 S3000
G0 F5400 X99.956 Y39.993
M204 S2500
G1 F900 X106.252 Y46.29 E109.06139
G1 X106.322 Y46.36
M204 S3000
G0 F5400 X106.252 Y46.855
M204 S2500
G1 F900 X99.39 Y39.993 E109.47276
G1 X99.32 Y39.923
M204 S3000
G0 F5400 X98.825 Y39.993
M204 S2500
G1 F900 X106.252 Y47.421 E109.91804
G1 X106.322 Y47.491
M204 S3000
G0 F5400 X106.252 Y47.987
M204 S2500
G1 F900 X98.259 Y39.993 E110.39725
G1 X98.189 Y39.923
M204 S3000
G0 F5400 X97.693 Y39.993
M204 S2500
G1 F900 X106.252 Y48.552 E110.91036
G1 X106.322 Y48.622
M204 S3000
G0 F5400 X106.252 Y49.118
M204 S2500
G1 F900 X97.128 Y39.993 E111.45737
G1 X97.058 Y39.923
M204 S3000
G0 F5400 X96.562 Y39.993
M204 S2500
G1 F900 X106.252 Y49.684 E112.03831
G1 X106.322 Y49.754
M204 S3000
G0 F5400 X106.252 Y50.249
M204 S2500
G1 F900 X95.996 Y39.993 E112.65315
G1 X95.926 Y39.923
M204 S3000
G0 F5400 X95.431 Y39.993
M204 S2500
G1 F900 X106.252 Y50.815 E113.3019
G1 X106.322 Y50.885
M204 S3000
G0 F5400 X106.252 Y51.381
M204 S2500
G1 F900 X94.865 Y39.993 E113.98458
G1 X94.795 Y39.923
M204 S3000
G0 F5400 X94.299 Y39.993
M204 S2500
G1 F900 X106.252 Y51.946 E114.70116
G1 X106.322 Y52.016
M204 S3000
G0 F5400 X106.252 Y52.512
M204 S2500
G1 F900 X93.734 Y39.993 E115.45164
G1 X93.664 Y39.923
M204 S3000
G0 F5400 X93.168 Y39.993
M204 S2500
G1 F900 X102.287 Y49.113 E115.99835
G1 X102.357 Y49.183
M204 S3000
G0 F5400 X101.761 Y49.152
M204 S2500
G1 F900 X92.602 Y39.993 E116.54743
G1 X92.532 Y39.923
M204 S3000
G0 F5400 X92.037 Y39.993
M204 S2500
G1 F900 X101.235 Y49.192 E117.09888
G1 X101.305 Y49.262
M204 S3000
G0 F5400 X100.708 Y49.231
M204 S2500
G1 F900 X91.471 Y39.993 E117.65266
G1 X91.401 Y39.923
M204 S3000
G0 F5400 X90.905 Y39.993
M204 S2500
G1 F900 X100.182 Y49.271 E118.20884
G1 X100.252 Y49.341
M204 S3000
G0 F5400 X99.955 Y49.609
M204 S2500
G1 F900 X90.339 Y39.993 E118.78532
G1 X90.269 Y39.923
M204 S3000
G0 F5400 X89.774 Y39.993
M204 S2500
G1 F900 X99.129 Y49.348 E119.34615
G1 X99.199 Y49.418
M204 S3000
G0 F5400 X98.602 Y49.387
M204 S2500
G1 F900 X89.208 Y39.993 E119.90932
G1 X89.138 Y39.923
M204 S3000
G0 F5400 X88.642 Y39.993
M204 S2500
G1 F900 X98.076 Y49.427 E120.47488
G1 X98.146 Y49.497
M204 S3000
G0 F5400 X97.549 Y49.466
M204 S2500
G1 F900 X88.077 Y39.993 E121.04276
G1 X88.007 Y39.923
M204 S3000
G0 F5400 X87.511 Y39.993
M204 S2500
G1 F900 X97.118 Y49.6 E121.61869
G1 X97.188 Y49.67
M204 S3000
G0 F5400 X96.939 Y49.987
M204 S2500
G1 F900 X86.945 Y39.993 E122.21783
G1 X86.875 Y39.923
M204 S3000
G0 F5400 X86.38 Y39.993
M204 S2500
G1 F900 X96.759 Y50.373 E122.84008
G1 X96.829 Y50.443
M204 S3000
G0 F5400 X96.605 Y50.785
M204 S2500
G1 F900 X85.814 Y39.993 E123.48703
G1 X85.744 Y39.923
M204 S3000
G0 F5400 X85.248 Y39.993
M204 S2500
G1 F900 X96.489 Y51.234 E124.16092
G1 X96.559 Y51.304
M204 S3000
G0 F5400 X96.43 Y51.741
M204 S2500
G1 F900 X84.683 Y39.993 E124.86518
G1 X84.613 Y39.923
M204 S3000
G0 F5400 X84.117 Y39.993
M204 S2500
G1 F900 X96.469 Y52.345 E125.60568
G1 X96.539 Y52.415
M204 S3000
G0 F5400 X96.685 Y53.127
M204 S2500
G1 F900 X83.551 Y39.993 E126.39306
